X: 1672
T: Sarsam Seni
C: Sadettin Kaynak
O: Turkey
F: http://compmusic.upf.edu/node/140
N: hicazkar--sarki--sofyan--sarsam_seni--sadettin_kaynak
N: makam= hicazkar
N: form= sarki
N: usul= sofyan = 4/4
M: 4/4
L: 1/16
K: C _1/4B _7/8e _7/8A ^f
Q: 1/4=81
%%MIDI tuningsystem comma53
z2c'2 b2a2 gagf edef  | g2de zdcd BAGF G4  | 
w:   |   | 
z2=f6 f2e2 d2g2  | e2ce e2ce dfed cBc2  | \
w:   |   | 
z2e4c2 e2ce e2ce  | 
w:   | 
d4 B4 d2Bd d2Bd  | e4 f4 gagf edc2  | \
w:   |   | 
B2A2 G2F2 G4 z4  | 
w:   | 
z2c'2 b2a2 gagf edef  | g2de zdcd BAGF G4  | 
w:   |   | 
z2=f6 f2e2 d2g2  | e2ce e2ce dfed cBc2  | \
w:   |   | 
z2e4c2 e2ce e2ce  | 
w:   | 
d4 B4 d2Bd d2Bd  | e4 f4 gagf edc2  | \
w:   |   | 
B2A2 G2F2 G4 z4  | 
w:   | 
z2g6 g4 g2fg  | a12 a2bc'  | bag2 z2fg ac'ba g2fg  | 
w:   |   |   | 
a12 gfe2  | g12 fed2  | e8 def4ed  | d4 z2cd efed cBc2  | 
w:   |   |   |   | 
z2c4d2 ede2 f4  | g4 z2ga fgef dec2  | \
w:   |   | 
z2B4c2 B2A2 G2F2  | 
w:   | 
G4 z2FG AcBA GFG2  | z2g6 g4 g2fg  | \
w:   |   | 
a12 a2bc'  | 
w:   | 
bag2 z2fg ac'ba g2fg  | a12 gfe2  | g12 fed2  | 
w:   |   |   | 
e8 def4ed  | d4 z2cd efed cBc2  | z2c4d2 ede2 f4  | 
w:   |   |   | 
g4 z2fg agfg aga2  | z2g4c'2 b2a2 g2f2  | \
w:   |   | 
g6g=f f_1/4eed d4  | 
w:   | 
=f2g6 g4 g2=a2  | =ag=f2 z2f_1/4e dcde f4  | \
w:   |   | 
_1/4e2=f6 f4 f2g2  | 
w:   | 
gfe2 z2ed cBcd e4  | d2e6 e4 e2fg  | \
w:   |   | 
fed2 z2gf edef g4  | 
w:   | 
z2a4ag f3g gfe2  | edc2 z2Bc dfed cBc2  | 
w:   |   | 
z2B2 c2d2 ede2 f4  | g2fe f2ed e2dc ede2  | \
w:   |   | 
z2G2 A2B2 c4 BAGF  | 
w:   | 
G4 z2cd d_BcB d4  | z2d6 d6c2  | _edc2 z4 c2dc _B2_AG  | 
w:   |   |   | 
=F2c6 c6_B2  | dc_B2 z4 B2cB _A2G=F  | \
w:   |   | 
=F2A6 A4 A2GF  | G_A_BA B2AG G4 c_1/4Bc2  | 
w:   |   | 
z2c4d2 ede2 f4  | g4 z2fg agfg aga2  | \
w:   |   | 
z2g4c'2 b2a2 g2f2  | 
w:   | 
g4 z2g=f f_eed d4  | =f2g6 g4 g2=a2  | \
w:   |   | 
=ag=f2 z2f_1/4e dcde f4  | 
w:   | 
_1/4e2=f6 f4 f2g2  | gfe2 z2ed cBcd e4  | \
w:   |   | 
d2e6 e4 e2fg  | 
w:   | 
fed2 z2gf edef g4  | z2a4ag f3g gfe2  | \
w:   |   | 
edc2 z2Bc dfed cBc2  | 
w:   | 
z2B2 c2d2 ede2 f4  | g2fe f2ed e2dc ede2  | \
w:   |   | 
z2G2 A2B2 c4 BAGF  | 
w:   | 
G4 z2cd d_BcB d4  | z2d6 d6c2  | _edc2 z4 c2dc _B2_AG  | 
w:   |   |   | 
=F2c6 c6_B2  | dc_B2 z4 B2cB _A2G=F  | \
w:   |   | 
=F2A6 A4 A2GF  | G_A_BA B2AG G4 c_1/4Bc2  | 
w:   |   | 
z2c4d2 ede2 f4  | g4 z2fg agfg aga2  | \
w:   |   | 
z2g4c'2 b2a2 g2f2  | 
w:   | 
g4 z2g=f f_eed d4  | |


